X: 32626
T: Pleasant Walk
R: jig
M: 6/8
K: Adorian
e2|:dcA AGE|ABA cde|dcA AGE|~A3 A2 e|
dcA AGE|ABA cde|ged cde|1 A2 A A2 e:|2 ~A3 A3||
|:~a3 age|dcd A2 B|c2 d ede|c2 d e2 g|
a2 a age|dcd A2 B|c2 d ede|1 ~A3 A3:|2 ~A3 A2 e||

